dist/svg/u1F943.svg

<?xml version="1.0" encoding="UTF-8"?><svg id="Layer_1" xmlns="http://www.w3.org/2000/svg" viewBox="0 0 40 40"><g><g><path d="M36.46702,32.08688V5.93271c0-.79126-.64144-1.43271-1.43271-1.43271H4.96568c-.79126,0-1.43271,.64144-1.43271,1.43271v26.15417c0,1.88502,1.52811,3.41312,3.41312,3.41312h26.1078c1.88502,0,3.41312-1.52811,3.41312-3.41312Z" style="fill:#e5e9ee;"/><path d="M4.91878,29.63865c0,2.39469,6.75209,3.2248,15.08122,3.2248s15.08122-.8301,15.08122-3.2248v-10.81349c0-.55228-.44772-1-1-1H5.91878c-.55228,0-1,.44772-1,1v10.81349Z" style="fill:#f77f00;"/><path d="M26.30106,12.36987l-10.06724-1.20799c-1.27077-.15216-2.4246,.75412-2.57703,2.02513l-.6897,5.74806c2.59223,.21463,5.37174,.12993,8.25478-.09253,2.36797-.18284,4.60528-.62765,6.75058-.94938l.3535-2.94652c.15248-1.27045-.75412-2.4246-2.02489-2.57677Z" style="fill:#fff;"/><path d="M21.18315,18.65992c-2.88304,.22247-5.50567-.80528-8.07837-.83476l-.65582,5.42871c-.15242,1.27101,.75419,2.4246,2.02502,2.57732l10.06724,1.20799c1.27077,.15216,2.42448-.75468,2.57703-2.02513l.85419-7.1209c-2.14531,.32173-4.42133,.58393-6.7893,.76677Z" style="fill:#ff9c00;"/></g><ellipse cx="20.53862" cy="17.82516" rx="7.43383" ry="1.30584" style="fill:#ffe3a0;"/></g><rect y="0" width="40" height="40" style="fill:none;"/></svg>

<svg id="Layer_1" data-name="Layer 1" xmlns="http://www.w3.org/2000/svg" viewBox="0 0 40 40"><defs><style>.cls-1{fill:#e5e9ee;}.cls-2{fill:#f77f00;}.cls-3{fill:#fff;}.cls-4{fill:#ff9c00;}.cls-5{fill:#ffe3a0;}.cls-6{fill:none;}</style></defs><path class="cls-1" d="M36.467,32.087V5.933A1.432,1.432,0,0,0,35.034,4.5H4.966A1.432,1.432,0,0,0,3.533,5.933V32.087A3.413,3.413,0,0,0,6.946,35.5H33.054A3.413,3.413,0,0,0,36.467,32.087Z"/><path class="cls-2" d="M4.919,29.639c0,2.394,6.752,3.224,15.081,3.224s15.081-.83,15.081-3.224V18.825a1,1,0,0,0-1-1H5.919a1,1,0,0,0-1,1Z"/><path class="cls-3" d="M26.3,12.37,16.234,11.162a2.317,2.317,0,0,0-2.577,2.025l-.69,5.748a52.421,52.421,0,0,0,8.255-.092c2.368-.183,4.605-.628,6.75-.95l.354-2.946A2.317,2.317,0,0,0,26.3,12.37Z"/><path class="cls-4" d="M21.183,18.66c-2.883.222-5.506-.8-8.078-.835l-.656,5.429a2.318,2.318,0,0,0,2.025,2.577l10.067,1.208a2.317,2.317,0,0,0,2.577-2.025l.854-7.121C25.827,18.215,23.551,18.477,21.183,18.66Z"/><ellipse class="cls-5" cx="20.539" cy="17.825" rx="7.434" ry="1.306"/><rect class="cls-6" width="40" height="40"/></svg>
